src/pos-icons/transfer-right.svg

<svg height="24" viewBox="0 0 24 24" width="24" xmlns="http://www.w3.org/2000/svg"><path d="m3 8h2v8h-2zm4 0h2v8h-2zm4 0h2v8h-2zm4 11.25v-14.5l7.25 7.25z"/></svg>

<?xml version="1.0" encoding="UTF-8"?><!DOCTYPE svg PUBLIC "-//W3C//DTD SVG 1.1//EN" "http://www.w3.org/Graphics/SVG/1.1/DTD/svg11.dtd"><svg xmlns="http://www.w3.org/2000/svg" xmlns:xlink="http://www.w3.org/1999/xlink" version="1.1" id="mdi-transfer-right" width="24" height="24" viewBox="0 0 24 24"><path d="M3,8H5V16H3V8M7,8H9V16H7V8M11,8H13V16H11V8M15,19.25V4.75L22.25,12L15,19.25Z" /></svg>
